X: 3
T: Kilfenora, The
M: 12/8
L: 1/8
R: slide
K: Amaj
|: EFG |
A2 c c^Bc A2 c c2 E | A2 c c^Bc dcd =B2 E |
A2 B cBA F^EF d2 B | cBA EFG A3 :|
|: Acd |
e2 a a2 g faf e2 c | Ace edc d2 c B2 c |
eaa aga f/g/af e2 c | A2 e edc dcB A3 :|
|: A2 c |
B2 G E2 c B2 G E2 c | BGG AGF E3- EFG |
AGA cBA F^EF d3 | cBG E2 B A3 :|
